X: 110202
T: MISS JOHNSTON
Q: "Reel."
R:  Reel.
%R: reel
B: James Kerr "Merry Melodies" v.1 p.10 s.2 #2
Z: 2017 John Chambers <jc:trillian.mit.edu>
M: C
L: 1/8
K: G
|:\
Bcde dBBe | dBgd bdgd |\
Bcde dBBd | cAag fedc :|\
BABd G2(BA) | GBDB GBDB |
cBAG G2(BG) | FGAB cAdc |\
BABd G2(BA) | GBDB GBDB |\
dBcA BGAF | DEFG ABcA |]

%%sep 1 1 500
%%sep 1 1 500

